src/epub/images/titlepage.svg

<?xml version="1.0" encoding="utf-8"?>
<svg xmlns="http://www.w3.org/2000/svg" xmlns:svg="http://www.w3.org/2000/svg" version="1.1" viewBox="0 0 1400 340">
	<title>The titlepage for the Standard Ebooks edition of Pride and Prejudice, by Jane Austen</title>
	<g>
		<path d="m 125.8918,52.807016 0,77.192984 17.59065,0 0,-28.63158 10.5731,0 c 15.06432,0 26.38596,-8.888888 26.38596,-24.795322 0,-16 -11.32164,-23.766082 -26.38596,-23.766082 l -28.16375,0 z m 17.59065,34.526317 0,-20.491229 4.95906,0 c 6.92398,0 13.47369,2.339181 13.47369,10.292398 0,7.859649 -6.54971,10.198831 -13.47369,10.198831 l -4.95906,0 z"/>
		<path d="m 193.20906,52.807016 0,77.192984 17.59064,0 0,-30.502925 L 234.37865,130 l 22.36257,0 -26.5731,-31.906433 c 9.45029,-2.994152 15.81287,-10.760234 15.81287,-22.362574 0,-15.157895 -10.8538,-22.923977 -25.16959,-22.923977 l -27.60234,0 z m 17.59064,34.245615 0,-20.210527 2.05848,0 c 6.64327,0 14.59649,0.467836 14.59649,10.105263 0,9.637428 -7.95322,10.105264 -14.59649,10.105264 l -2.05848,0 z"/>
		<path d="m 282.86842,52.807016 -17.59065,0 0,77.192984 17.59065,0 0,-77.192984 z"/>
		<path d="m 299.15204,52.807016 0,77.192984 22.36258,0 c 21.23976,0 38.92397,-16.09357 38.92397,-38.643276 0,-22.45614 -17.77778,-38.549708 -38.92397,-38.549708 l -22.36258,0 z m 17.59065,61.473684 0,-45.754385 2.71345,0 c 13.09941,0 21.9883,10.011696 21.9883,22.923977 -0.0936,12.912278 -8.98246,22.830408 -21.9883,22.830408 l -2.71345,0 z"/>
		<path d="m 417.39473,52.807016 -44.16374,0 0,77.192984 44.16374,0 0,-15.4386 -26.5731,0 0,-15.532161 25.4503,0 0,-15.438597 -25.4503,0 0,-15.345029 26.5731,0 0,-15.438597 z"/>
		<path d="m 502.2968,52.807016 -16.2807,0 L 454.8582,130 l 18.90059,0 5.7076,-15.4386 29.38012,0 5.7076,15.4386 18.90059,0 -31.1579,-77.192984 z m 0.5614,46.31579 -17.40351,0 8.60819,-22.45614 0.18714,0 8.60818,22.45614 z"/>
		<path d="m 558.96493,82.093566 0.18713,0 L 589.84212,130 l 17.59065,0 0,-77.192984 -17.59065,0 0,47.906434 -0.18713,0 -30.69006,-47.906434 -17.59064,0 0,77.192984 17.59064,0 0,-47.906434 z"/>
		<path d="m 623.6769,52.807016 0,77.192984 22.36257,0 c 21.23977,0 38.92398,-16.09357 38.92398,-38.643276 0,-22.45614 -17.77778,-38.549708 -38.92398,-38.549708 l -22.36257,0 z m 17.59064,61.473684 0,-45.754385 2.71345,0 c 13.09942,0 21.98831,10.011696 21.98831,22.923977 -0.0936,12.912278 -8.98246,22.830408 -21.98831,22.830408 l -2.71345,0 z"/>
		<path d="m 728.34066,52.807016 0,77.192984 17.59064,0 0,-28.63158 10.5731,0 c 15.06433,0 26.38596,-8.888888 26.38596,-24.795322 0,-16 -11.32163,-23.766082 -26.38596,-23.766082 l -28.16374,0 z m 17.59064,34.526317 0,-20.491229 4.95906,0 c 6.92398,0 13.47369,2.339181 13.47369,10.292398 0,7.859649 -6.54971,10.198831 -13.47369,10.198831 l -4.95906,0 z"/>
		<path d="m 795.65792,52.807016 0,77.192984 17.59064,0 0,-30.502925 L 836.82751,130 l 22.36257,0 -26.5731,-31.906433 c 9.45029,-2.994152 15.81287,-10.760234 15.81287,-22.362574 0,-15.157895 -10.8538,-22.923977 -25.16959,-22.923977 l -27.60234,0 z m 17.59064,34.245615 0,-20.210527 2.05848,0 c 6.64327,0 14.59649,0.467836 14.59649,10.105263 0,9.637428 -7.95322,10.105264 -14.59649,10.105264 l -2.05848,0 z"/>
		<path d="m 911.89039,52.807016 -44.16375,0 0,77.192984 44.16375,0 0,-15.4386 -26.5731,0 0,-15.532161 25.45029,0 0,-15.438597 -25.45029,0 0,-15.345029 26.5731,0 0,-15.438597 z"/>
		<path d="m 960.59359,52.807016 -17.59064,0 0,50.900584 c 0,7.76608 -3.83626,10.8538 -8.88889,10.8538 -4.49123,0 -10.0117,-5.23976 -10.0117,-5.23976 l -5.61403,14.69006 c 0,0 7.01754,7.39181 18.05848,7.39181 15.4386,0 24.04678,-8.04678 24.04678,-23.20468 l 0,-55.391814 z"/>
		<path d="m 1035.1842,52.807016 -17.5906,0 0,44.63158 c 0,12.912284 -3.9299,16.654974 -12.538,16.654974 -8.60824,0 -12.53806,-3.74269 -12.53806,-16.654974 l 0,-44.63158 -17.59064,0 0,49.777774 c 0,19.08772 10.47953,28.81872 30.1287,28.81872 19.6491,0 30.1286,-9.731 30.1286,-28.81872 l 0,-49.777774 z"/>
		<path d="m 1050.4898,52.807016 0,77.192984 22.3625,0 c 21.2398,0 38.924,-16.09357 38.924,-38.643276 0,-22.45614 -17.7778,-38.549708 -38.924,-38.549708 l -22.3625,0 z m 17.5906,61.473684 0,-45.754385 2.7135,0 c 13.0994,0 21.9883,10.011696 21.9883,22.923977 -0.094,12.912278 -8.9825,22.830408 -21.9883,22.830408 l -2.7135,0 z"/>
		<path d="m 1142.1594,52.807016 -17.5907,0 0,77.192984 17.5907,0 0,-77.192984 z"/>
		<path d="m 1196.595,114.09357 c -17.6842,0 -25.4503,-12.35088 -25.4503,-22.736846 0,-10.292397 7.7661,-22.643275 25.4503,-22.643275 8.9825,0 15.1579,4.77193 15.1579,4.77193 l 7.4854,-14.97076 c 0,0 -8.6082,-7.111112 -25.3567,-7.111112 -21.8948,0 -41.8246,17.964913 -41.8246,40.140352 0,22.081871 20.0234,39.859651 41.8246,39.859651 16.7485,0 25.3567,-7.11111 25.3567,-7.11111 l -7.4854,-14.97076 c 0,0 -6.1754,4.77193 -15.1579,4.77193 z"/>
		<path d="m 1275.2238,52.807016 -44.1638,0 0,77.192984 44.1638,0 0,-15.4386 -26.5731,0 0,-15.532161 25.4503,0 0,-15.438597 -25.4503,0 0,-15.345029 26.5731,0 0,-15.438597 z"/>
	</g>
	<g>
		<path d="m 456.52796,232.10526 -13.19298,0 0,38.17544 c 0,5.82456 -2.87719,8.14035 -6.66667,8.14035 -3.36842,0 -7.50877,-3.92982 -7.50877,-3.92982 l -4.21052,11.01754 c 0,0 5.26315,5.54386 13.54386,5.54386 11.57894,0 18.03508,-6.03509 18.03508,-17.40351 l 0,-41.54386 z"/>
		<path d="m 498.63323,232.10526 -12.21053,0 L 463.05428,290 l 14.17544,0 4.2807,-11.57895 22.03509,0 4.2807,11.57895 14.17544,0 -23.36842,-57.89474 z m 0.42105,34.73685 -13.05263,0 6.45614,-16.84211 0.14035,0 6.45614,16.84211 z"/>
		<path d="m 542.38432,254.07018 0.14035,0 23.01755,35.92982 13.19298,0 0,-57.89474 -13.19298,0 0,35.92983 -0.14035,0 -23.01755,-35.92983 -13.19298,0 0,57.89474 13.19298,0 0,-35.92982 z"/>
		<path d="m 625.29113,232.10526 -33.12281,0 0,57.89474 33.12281,0 0,-11.57895 -19.92982,0 0,-11.64912 19.08772,0 0,-11.57895 -19.08772,0 0,-11.50877 19.92982,0 0,-11.57895 z"/>
		<path d="m 691.46766,232.10526 -12.21053,0 L 655.88871,290 l 14.17544,0 4.2807,-11.57895 22.03509,0 4.2807,11.57895 14.17544,0 -23.36842,-57.89474 z m 0.42105,34.73685 -13.05263,0 6.45614,-16.84211 0.14035,0 6.45614,16.84211 z"/>
		<path d="m 766.517,232.10526 -13.19298,0 0,33.47369 c 0,9.68421 -2.94737,12.49123 -9.40351,12.49123 -6.45614,0 -9.40351,-2.80702 -9.40351,-12.49123 l 0,-33.47369 -13.19298,0 0,37.33334 c 0,14.31579 7.85965,21.61403 22.59649,21.61403 14.73684,0 22.59649,-7.29824 22.59649,-21.61403 l 0,-37.33334 z"/>
		<path d="m 799.2089,231.05263 c -9.33333,0 -18.87719,6.8772 -18.87719,17.68421 0,6.03509 4.07017,11.4386 11.01754,14.8772 6.8772,3.43859 13.05263,5.33333 13.05263,9.54385 0,5.40351 -5.47368,5.68422 -8.35087,5.68422 -6.45614,0 -14.17544,-6.52632 -14.17544,-6.52632 l -6.59649,11.08772 c 0,0 8.21052,7.64912 21.75438,7.64912 11.29825,0 21.82456,-4.8421 21.82456,-18.66666 0,-7.57895 -7.08771,-13.05264 -13.54385,-15.78948 -6.5965,-2.80702 -12.07018,-5.12281 -12.07018,-8.35088 0,-3.15789 2.38596,-5.19298 6.87719,-5.19298 5.96491,0 11.7193,4 11.7193,4 l 5.33333,-10.52631 c 0,0 -7.43859,-5.47369 -17.96491,-5.47369 z"/>
		<path d="m 822.94901,243.68421 13.75439,0 0,46.31579 13.19298,0 0,-46.31579 13.75438,0 0,-11.57895 -40.70175,0 0,11.57895 z"/>
		<path d="m 906.52468,232.10526 -33.12281,0 0,57.89474 33.12281,0 0,-11.57895 -19.92982,0 0,-11.64912 19.08772,0 0,-11.57895 -19.08772,0 0,-11.50877 19.92982,0 0,-11.57895 z"/>
		<path d="m 932.3021,254.07018 0.14035,0 L 955.46,290 l 13.19298,0 0,-57.89474 -13.19298,0 0,35.92983 -0.14035,0 -23.01755,-35.92983 -13.19298,0 0,57.89474 13.19298,0 0,-35.92982 z"/>
	</g>
</svg>

<?xml version="1.0" encoding="utf-8"?>
<svg xmlns="http://www.w3.org/2000/svg" xmlns:svg="http://www.w3.org/2000/svg" version="1.1" viewBox="0 0 1400 340">
	<title>The titlepage for the Standard Ebooks edition of Pride and Prejudice, by Jane Austen</title>
	<g aria-label="PRIDE AND PREJUDICE">
		<path d="M 125.8918,52.807016 V 130 h 17.59065 v -28.63158 h 10.5731 c 15.06432,0 26.38596,-8.888888 26.38596,-24.795322 0,-16 -11.32164,-23.766082 -26.38596,-23.766082 z m 17.59065,34.526317 V 66.842104 h 4.95906 c 6.92398,0 13.47369,2.339181 13.47369,10.292398 0,7.859649 -6.54971,10.198831 -13.47369,10.198831 z"/>
		<path d="M 193.20906,52.807016 V 130 H 210.7997 V 99.497075 L 234.37865,130 h 22.36257 l -26.5731,-31.906433 c 9.45029,-2.994152 15.81287,-10.760234 15.81287,-22.362574 0,-15.157895 -10.8538,-22.923977 -25.16959,-22.923977 z M 210.7997,87.052631 V 66.842104 h 2.05848 c 6.64327,0 14.59649,0.467836 14.59649,10.105263 0,9.637428 -7.95322,10.105264 -14.59649,10.105264 z"/>
		<path d="M 282.86842,52.807016 H 265.27777 V 130 h 17.59065 z"/>
		<path d="M 299.15204,52.807016 V 130 h 22.36258 c 21.23976,0 38.92397,-16.09357 38.92397,-38.643276 0,-22.45614 -17.77778,-38.549708 -38.92397,-38.549708 z M 316.74269,114.2807 V 68.526315 h 2.71345 c 13.09941,0 21.9883,10.011696 21.9883,22.923977 -0.0936,12.912278 -8.98246,22.830408 -21.9883,22.830408 z"/>
		<path d="M 417.39473,52.807016 H 373.23099 V 130 h 44.16374 v -15.4386 h -26.5731 V 99.029239 h 25.4503 V 83.590642 h -25.4503 V 68.245613 h 26.5731 z"/>
		<path d="M 502.2968,52.807016 H 486.0161 L 454.8582,130 h 18.90059 l 5.7076,-15.4386 h 29.38012 L 514.55411,130 h 18.90059 z m 0.5614,46.31579 h -17.40351 l 8.60819,-22.45614 h 0.18714 z"/>
		<path d="m 558.96493,82.093566 h 0.18713 L 589.84212,130 h 17.59065 V 52.807016 h -17.59065 v 47.906434 h -0.18713 L 558.96493,52.807016 H 541.37429 V 130 h 17.59064 z"/>
		<path d="M 623.6769,52.807016 V 130 h 22.36257 c 21.23977,0 38.92398,-16.09357 38.92398,-38.643276 0,-22.45614 -17.77778,-38.549708 -38.92398,-38.549708 z M 641.26754,114.2807 V 68.526315 h 2.71345 c 13.09942,0 21.98831,10.011696 21.98831,22.923977 -0.0936,12.912278 -8.98246,22.830408 -21.98831,22.830408 z"/>
		<path d="M 728.34066,52.807016 V 130 h 17.59064 v -28.63158 h 10.5731 c 15.06433,0 26.38596,-8.888888 26.38596,-24.795322 0,-16 -11.32163,-23.766082 -26.38596,-23.766082 z M 745.9313,87.333333 V 66.842104 h 4.95906 c 6.92398,0 13.47369,2.339181 13.47369,10.292398 0,7.859649 -6.54971,10.198831 -13.47369,10.198831 z"/>
		<path d="M 795.65792,52.807016 V 130 h 17.59064 V 99.497075 L 836.82751,130 h 22.36257 l -26.5731,-31.906433 c 9.45029,-2.994152 15.81287,-10.760234 15.81287,-22.362574 0,-15.157895 -10.8538,-22.923977 -25.16959,-22.923977 z m 17.59064,34.245615 V 66.842104 h 2.05848 c 6.64327,0 14.59649,0.467836 14.59649,10.105263 0,9.637428 -7.95322,10.105264 -14.59649,10.105264 z"/>
		<path d="M 911.89039,52.807016 H 867.72664 V 130 h 44.16375 v -15.4386 h -26.5731 V 99.029239 h 25.45029 V 83.590642 H 885.31729 V 68.245613 h 26.5731 z"/>
		<path d="M 960.59359,52.807016 H 943.00295 V 103.7076 c 0,7.76608 -3.83626,10.8538 -8.88889,10.8538 -4.49123,0 -10.0117,-5.23976 -10.0117,-5.23976 l -5.61403,14.69006 c 0,0 7.01754,7.39181 18.05848,7.39181 15.4386,0 24.04678,-8.04678 24.04678,-23.20468 z"/>
		<path d="m 1035.1842,52.807016 h -17.5906 v 44.63158 c 0,12.912284 -3.9299,16.654974 -12.538,16.654974 -8.60824,0 -12.53806,-3.74269 -12.53806,-16.654974 V 52.807016 H 974.9269 v 49.777774 c 0,19.08772 10.47953,28.81872 30.1287,28.81872 19.6491,0 30.1286,-9.731 30.1286,-28.81872 z"/>
		<path d="M 1050.4898,52.807016 V 130 h 22.3625 c 21.2398,0 38.924,-16.09357 38.924,-38.643276 0,-22.45614 -17.7778,-38.549708 -38.924,-38.549708 z m 17.5906,61.473684 V 68.526315 h 2.7135 c 13.0994,0 21.9883,10.011696 21.9883,22.923977 -0.094,12.912278 -8.9825,22.830408 -21.9883,22.830408 z"/>
		<path d="m 1142.1594,52.807016 h -17.5907 V 130 h 17.5907 z"/>
		<path d="m 1196.595,114.09357 c -17.6842,0 -25.4503,-12.35088 -25.4503,-22.736846 0,-10.292397 7.7661,-22.643275 25.4503,-22.643275 8.9825,0 15.1579,4.77193 15.1579,4.77193 l 7.4854,-14.97076 c 0,0 -8.6082,-7.111112 -25.3567,-7.111112 -21.8948,0 -41.8246,17.964913 -41.8246,40.140352 0,22.081871 20.0234,39.859651 41.8246,39.859651 16.7485,0 25.3567,-7.11111 25.3567,-7.11111 l -7.4854,-14.97076 c 0,0 -6.1754,4.77193 -15.1579,4.77193 z"/>
		<path d="M 1275.2238,52.807016 H 1231.06 V 130 h 44.1638 v -15.4386 h -26.5731 V 99.029239 h 25.4503 V 83.590642 h -25.4503 V 68.245613 h 26.5731 z"/>
	</g>
	<g aria-label="JANE AUSTEN">
		<path d="m 456.52796,232.10526 h -13.19298 v 38.17544 c 0,5.82456 -2.87719,8.14035 -6.66667,8.14035 -3.36842,0 -7.50877,-3.92982 -7.50877,-3.92982 l -4.21052,11.01754 c 0,0 5.26315,5.54386 13.54386,5.54386 11.57894,0 18.03508,-6.03509 18.03508,-17.40351 z"/>
		<path d="M 498.63323,232.10526 H 486.4227 L 463.05428,290 h 14.17544 l 4.2807,-11.57895 h 22.03509 L 507.82621,290 h 14.17544 z m 0.42105,34.73685 H 486.00165 L 492.45779,250 h 0.14035 z"/>
		<path d="m 542.38432,254.07018 h 0.14035 L 565.54222,290 h 13.19298 v -57.89474 h -13.19298 v 35.92983 h -0.14035 L 542.38432,232.10526 H 529.19134 V 290 h 13.19298 z"/>
		<path d="M 625.29113,232.10526 H 592.16832 V 290 h 33.12281 v -11.57895 h -19.92982 v -11.64912 h 19.08772 v -11.57895 h -19.08772 v -11.50877 h 19.92982 z"/>
		<path d="M 691.46766,232.10526 H 679.25713 L 655.88871,290 h 14.17544 l 4.2807,-11.57895 h 22.03509 L 700.66064,290 h 14.17544 z m 0.42105,34.73685 H 678.83608 L 685.29222,250 h 0.14035 z"/>
		<path d="m 766.517,232.10526 h -13.19298 v 33.47369 c 0,9.68421 -2.94737,12.49123 -9.40351,12.49123 -6.45614,0 -9.40351,-2.80702 -9.40351,-12.49123 v -33.47369 h -13.19298 v 37.33334 c 0,14.31579 7.85965,21.61403 22.59649,21.61403 14.73684,0 22.59649,-7.29824 22.59649,-21.61403 z"/>
		<path d="m 799.2089,231.05263 c -9.33333,0 -18.87719,6.8772 -18.87719,17.68421 0,6.03509 4.07017,11.4386 11.01754,14.8772 6.8772,3.43859 13.05263,5.33333 13.05263,9.54385 0,5.40351 -5.47368,5.68422 -8.35087,5.68422 -6.45614,0 -14.17544,-6.52632 -14.17544,-6.52632 l -6.59649,11.08772 c 0,0 8.21052,7.64912 21.75438,7.64912 11.29825,0 21.82456,-4.8421 21.82456,-18.66666 0,-7.57895 -7.08771,-13.05264 -13.54385,-15.78948 -6.5965,-2.80702 -12.07018,-5.12281 -12.07018,-8.35088 0,-3.15789 2.38596,-5.19298 6.87719,-5.19298 5.96491,0 11.7193,4 11.7193,4 l 5.33333,-10.52631 c 0,0 -7.43859,-5.47369 -17.96491,-5.47369 z"/>
		<path d="M 822.94901,243.68421 H 836.7034 V 290 h 13.19298 v -46.31579 h 13.75438 v -11.57895 h -40.70175 z"/>
		<path d="M 906.52468,232.10526 H 873.40187 V 290 h 33.12281 v -11.57895 h -19.92982 v -11.64912 h 19.08772 v -11.57895 h -19.08772 v -11.50877 h 19.92982 z"/>
		<path d="m 932.3021,254.07018 h 0.14035 L 955.46,290 h 13.19298 V 232.10526 H 955.46 v 35.92983 h -0.14035 L 932.3021,232.10526 H 919.10912 V 290 h 13.19298 z"/>
	</g>
</svg>
